resources/svg/add.svg

<svg enable-background="new 0 0 512 512" viewBox="0 0 512 512" xmlns="http://www.w3.org/2000/svg"><path d="m256 0c-141.167 0-256 114.833-256 256s114.833 256 256 256 256-114.853 256-256-114.833-256-256-256zm0 472.341c-119.275 0-216.341-97.046-216.341-216.341s97.066-216.341 216.341-216.341 216.341 97.046 216.341 216.341-97.046 216.341-216.341 216.341z"/><path d="m355.148 234.386h-79.318v-79.318c0-10.946-8.864-19.83-19.83-19.83s-19.83 8.884-19.83 19.83v79.318h-79.318c-10.966 0-19.83 8.884-19.83 19.83s8.864 19.83 19.83 19.83h79.318v79.318c0 10.946 8.864 19.83 19.83 19.83s19.83-8.884 19.83-19.83v-79.318h79.318c10.966 0 19.83-8.884 19.83-19.83s-8.864-19.83-19.83-19.83z"/></svg>

<?xml version="1.0" encoding="iso-8859-1"?>
<!-- Generator: Adobe Illustrator 19.0.0, SVG Export Plug-In . SVG Version: 6.00 Build 0)  -->
<svg version="1.1" id="Capa_1" xmlns="http://www.w3.org/2000/svg" xmlns:xlink="http://www.w3.org/1999/xlink" x="0px" y="0px"
	 viewBox="0 0 512 512" style="enable-background:new 0 0 512 512;" xml:space="preserve">
<g>
	<g>
		<path d="M256,0C114.833,0,0,114.833,0,256s114.833,256,256,256s256-114.853,256-256S397.167,0,256,0z M256,472.341
			c-119.275,0-216.341-97.046-216.341-216.341S136.725,39.659,256,39.659S472.341,136.705,472.341,256S375.295,472.341,256,472.341z
			"/>
	</g>
</g>
<g>
	<g>
		<path d="M355.148,234.386H275.83v-79.318c0-10.946-8.864-19.83-19.83-19.83s-19.83,8.884-19.83,19.83v79.318h-79.318
			c-10.966,0-19.83,8.884-19.83,19.83s8.864,19.83,19.83,19.83h79.318v79.318c0,10.946,8.864,19.83,19.83,19.83
			s19.83-8.884,19.83-19.83v-79.318h79.318c10.966,0,19.83-8.884,19.83-19.83S366.114,234.386,355.148,234.386z"/>
	</g>
</g>
<g>
</g>
<g>
</g>
<g>
</g>
<g>
</g>
<g>
</g>
<g>
</g>
<g>
</g>
<g>
</g>
<g>
</g>
<g>
</g>
<g>
</g>
<g>
</g>
<g>
</g>
<g>
</g>
<g>
</g>
</svg>
